assets/logos/icons/clock.svg

<svg height="24" viewBox="0 0 24 24" width="24" xmlns="http://www.w3.org/2000/svg"><path d="m12 20c4.4 0 8-3.6 8-8 0-4.40000002-3.6-8.00000004-8-8.00000004-4.40000002 0-8.00000004 3.60000002-8.00000004 8.00000004 0 4.4 3.60000002 8 8.00000004 8zm-.0000001 1.9999999c-5.49999995 0-9.99999995-4.5-9.99999995-10 0-5.49999995 4.5-9.99999995 9.99999995-9.99999995 5.5 0 10 4.5 10 9.99999995 0 5.5-4.5 10-10 10zm3.7000001-10.8999999.9 1.8-4.2 2-1.4-.9v-7.00000002h2v5.40000002z" fill="#492f5c" fill-rule="evenodd"/></svg>

<svg xmlns="http://www.w3.org/2000/svg" xmlns:xlink="http://www.w3.org/1999/xlink" width="24" height="24" viewBox="0 0 24 24">
  <defs>
    <path id="clock-a" d="M12,20 C16.4,20 20,16.4 20,12 C20,7.59999998 16.4,3.99999996 12,3.99999996 C7.59999998,3.99999996 3.99999996,7.59999998 3.99999996,12 C3.99999996,16.4 7.59999998,20 12,20 Z M11.9999999,21.9999999 C6.49999995,21.9999999 1.99999995,17.4999999 1.99999995,11.9999999 C1.99999995,6.49999995 6.49999995,1.99999995 11.9999999,1.99999995 C17.4999999,1.99999995 21.9999999,6.49999995 21.9999999,11.9999999 C21.9999999,17.4999999 17.4999999,21.9999999 11.9999999,21.9999999 Z M15.7,11.1 L16.6,12.9 L12.4,14.9 L11,14 L11,6.99999998 L13,6.99999998 L13,12.4 L15.7,11.1 Z"/>
  </defs>
  <use fill="#492F5C" fill-rule="evenodd" xlink:href="#clock-a"/>
</svg>
